X:1023
T:Araidh nam Badan
S:Book, Patrick McDonald's Collections (1784; facsimile, 2000)
Z:Nigel Gatherer
M:6/8
L:1/8
K:G
d | D>GG G>AB | d>ed B>AG | B>AA ABd | e3 g3 |
dBG GAB | d>ed BAG | B>AA ABd | e3 d2 :|
z | deg ggg | a>ba geg | e>dd d>eg | a3 g2a |
b>gg a>ee | g>dd e>gg | B>AA ABd |1 e3 g2 :|2 e3 d2 |] 
<end>
<start>
